X:1
T:Juntos como hermanos
T:Misa - Entrada
T:Ordinario
C:René Bautista
S:
M:C
L:1/8
Q:1/4=90
K:F
%
    "F"A2A4 GA | "Dm"F2F6 | "Gm"B2B4 AB | "C7"G2G6 |
w: Jun-tos co-mo~her-ma-nos, miem-bros de~u-na~I-gle-sia
    "F"c2A4 BG | "Dm"F2F4 BB | "F"A3F "C7"G2G2 | "F"F6 ||
w: va-mos ca-mi-nan-do al en-cuen-tro del Se-ñor
    F2 | "A7"A3A AG3 | "Dm"F4 zFAc | "D7"d2c2 B2A2 | "Gm"G8 |
w: 1.~Un lar-go ca-mi-nar, por el de-sier-to ba-jo~el sol.
w: 2.~U-ni-dos al re-zar, u-ni-dos en u-na can-ción.
w: 3.~La~I-gle-sia~en mar-cha~es-tá, a~un mun-do nue-vo va-mos ya,
    "F"AAAA "C7"B2G2 | "F"F4 "C7"d2d2 | "F"A3F "C7"G2G2 | "F"F6 z2 :|
w: No po-de-mos a-van-zar sin la~a-yu-da del Se-ñor.
w: Vi-vi-re-mos nues-tra fe con la~a-yu-da del Se-ñor.
w: don-de rei-na-rá~el a-mor, don-de rei-na-rá la paz.